X:123
T:Irish Brogues. Ru2.123, The
%%VWML:RutherfordVol2-2249-p62-0
F:http://www.vwml.org/record/RutherfordVol2/2249/p62
Z:vmp.Steve Mansfield 2015 www.village-music-project.org.uk
M:6/8
L:1/8
W:Hay contrary sides .| Hay on your own Sides :|
W:Cross over two Couple .|. Lead up to the Top foot
W:it and cast off :|
Q:3/8=90
K:F
|:f3 ed^c | def A3 | dcB AGF | EFD CB,A, |
def ed^c | def efg | fed ^cBA | d3 D3 :|
|: FGF ABc | EFE GAB | AGF EFD | ^CDE A,3 |
DA,D EA,E | FA,F ABc | BAG FED | A,d^c d3 :|
T:Lovely Fanny. Ru2.124
B:RUTHERFORD Complete Collection of 200 Country Dances Vol.2; 1759.
Z:vmp.Steve Mansfield 2015 www.village-music-project.org.uk
M:C|
L:1/8
W:The 1st Cou. cast off & Hands across with the 3d Cou. .|
W:Cast up & Hands across with the 2d Cou. :| Cross
W:over two Cou. lead up to the Top foot it & cast off :|
W:Set Corners & turn .|| Set the other Corners and
W:turn :|| Lead out each Side & turn your Partner :|
Q:1/2=60
K:Amix
e | cA c/d/e c2Ad | BG B/c/d/c/ B2GB | cA a/g/f/e/ Tc2AB/c/ | d/c/B/A/ G/A/B/G/ A2A :|
|: f/g/ | ae c/d/e/c/ aeef | gg a/g/f/e/ gd Bf/g/ | a/g/f/e/ d/c/B/A/ aeed | c/d/e/c/ B/c/d/B/ A2A :|
